shader_type canvas_item;

uniform vec2 tiling = vec2(1.0, 1.0);
uniform vec2 offset;

void vertex()
{
	UV = UV + offset * TIME;
}


//void light() {
//	// Called for every pixel for every light affecting the material.
//	// Uncomment to replace the default light processing function with this one.
//}
